T: Charlie Stewart
M: 6/8
L: 1/8
K: Amaj
d|cee Ace|dfa ecA|def ecA|GBB B2d|dee efg|agf ecA|(f/g/a).f ecA|BAA A2:||:d|cAA eAA|(f/g/a).f ecA|cAA eAA|GBB B2d|cAA eAA|(f/g/a).f ecA|agf eac|B|:cee a2e|faf ecA|def ecA|GBB B2e|cee a2e|faf ecA|def ecA|BAA A3:||:cAA eAA|fAA eAA|cAA eAA|GBB B2e|cAA eAA|fef efg|agf eAc|BAA A3:|
